src/pos-icons/bicycle-basket.svg

<svg height="24" viewBox="0 0 24 24" width="24" xmlns="http://www.w3.org/2000/svg"><path d="m11.74 13.36 2.4-5.65-1.08-2.21h-2.56v-1.5h3.5l.73 1.5h7.02l-1 3.5h-4.31l.67 1.37c.58-.24 1.22-.37 1.89-.37 2.76 0 5 2.24 5 5s-2.24 5-5 5-5-2.24-5-5c0-1.55.71-2.94 1.82-3.85l-.82-1.65-2.75 6.5h-2.35c-.46 2.28-2.48 4-4.9 4-2.76 0-5-2.24-5-5s2.24-5 5-5c2.59 0 4.72 1.97 5 4.5h.58l-2.28-5.5h-.8c-.41 0-.75-.34-.75-.75s.34-.75.75-.75h2.75c.41 0 .75.34.75.75s-.34.75-.75.75h-.28zm-6.74-1.86c-1.93 0-3.5 1.57-3.5 3.5s1.57 3.5 3.5 3.5c1.59 0 2.93-1.05 3.36-2.5h-4.36v-1.5h4.47c-.25-1.7-1.71-3-3.47-3m14 0c-.43 0-.85.08-1.23.22l1.93 3.96-1.35.66-1.85-3.79c-.62.63-1 1.5-1 2.45 0 1.93 1.57 3.5 3.5 3.5s3.5-1.57 3.5-3.5-1.57-3.5-3.5-3.5z"/></svg>

<?xml version="1.0" encoding="UTF-8"?><!DOCTYPE svg PUBLIC "-//W3C//DTD SVG 1.1//EN" "http://www.w3.org/Graphics/SVG/1.1/DTD/svg11.dtd"><svg xmlns="http://www.w3.org/2000/svg" xmlns:xlink="http://www.w3.org/1999/xlink" version="1.1" id="mdi-bicycle-basket" width="24" height="24" viewBox="0 0 24 24"><path d="M11.74 13.36L14.14 7.71L13.06 5.5H10.5V4H14L14.73 5.5H21.75L20.75 9H16.44L17.11 10.37C17.69 10.13 18.33 10 19 10C21.76 10 24 12.24 24 15C24 17.76 21.76 20 19 20C16.24 20 14 17.76 14 15C14 13.45 14.71 12.06 15.82 11.15L15 9.5L12.25 16H9.9C9.44 18.28 7.42 20 5 20C2.24 20 0 17.76 0 15C0 12.24 2.24 10 5 10C7.59 10 9.72 11.97 10 14.5H10.58L8.3 9H7.5C7.09 9 6.75 8.66 6.75 8.25C6.75 7.84 7.09 7.5 7.5 7.5H10.25C10.66 7.5 11 7.84 11 8.25C11 8.66 10.66 9 10.25 9H9.97L11.74 13.36M5 11.5C3.07 11.5 1.5 13.07 1.5 15C1.5 16.93 3.07 18.5 5 18.5C6.59 18.5 7.93 17.45 8.36 16H4V14.5H8.47C8.22 12.8 6.76 11.5 5 11.5M19 11.5C18.57 11.5 18.15 11.58 17.77 11.72L19.7 15.68L18.35 16.34L16.5 12.55C15.88 13.18 15.5 14.05 15.5 15C15.5 16.93 17.07 18.5 19 18.5C20.93 18.5 22.5 16.93 22.5 15C22.5 13.07 20.93 11.5 19 11.5Z" /></svg>
